X: 584
T: Fun sidahen
L: 1/16
M: 2/4
K: F
d f d c B2 A G [I:setbarnb 1]| 
c d c FG4 | 
d f d c B2 A c | 
G A G F E2 D2 | 
F2 F G c2 c2 | 
G A G F E2 D2 | 
d f d c2< B2 c | 
d c B Ac4 |]

@@@ Tune index: 9458
